X:159
T:Miss Menzie of Culdare’s Strathspey. RH.159
R:Strathspey
S:Rev.R.Harrison’s MS,c1815,Cumbria
O:England
A:Temple Sowerby,Cumbria
Z:vmp.Simon Wilson. Review PJH, 2008.
M:C
L:1/8
Q:1/4=60
K:D
f/e/|dA B/A/G/F/ dAdf|fA/d/ B/A/G/F/{F}E2Ef/e/|!
dA B/A/G/F/ A>Bd>b|gfe>fd2d:|!
b/c’/|d’abd’ a>fdf|edfd B2Bb/c’/|!
d’abd’ a>fdf|e>defd2db/c’/|!
d’abd’ afdf|edfdB2B>d|!
A>Bde d>edd’/c’/|afe>fd2d|]

